icons/contact_support.svg

<svg width="48" height="48" viewBox="0 0 48 48" fill="none" xmlns="http://www.w3.org/2000/svg">
<path fill-rule="evenodd" clip-rule="evenodd" d="M24.8 33H27.5C34.4036 33 40 27.4036 40 20.5C40 13.5964 34.4036 8 27.5 8H20.5C13.5964 8 8 13.5964 8 20.5C8 28.5608 12.5962 33.3807 17.4302 36.2857C19.8562 37.7437 22.2996 38.6857 24.1465 39.2629C24.3744 39.3341 24.5926 39.3996 24.8 39.4597V33ZM26.8 42C26.8 42 26.0357 41.8714 24.8 41.5367C19.5898 40.1253 6 35.0495 6 20.5C6 12.4919 12.4919 6 20.5 6H27.5C35.5081 6 42 12.4919 42 20.5C42 28.5081 35.5081 35 27.5 35H26.8V42Z" fill="black"/>
<path fill-rule="evenodd" clip-rule="evenodd" d="M27.6911 12.4815C28.7208 13.1664 29.4975 14.2754 29.4975 15.7612C29.4975 17.3398 28.8607 18.4998 27.8296 19.2103C27.4023 19.5048 26.9424 19.6971 26.4998 19.8236V21.356C26.4998 22.1844 25.8282 22.856 24.9998 22.856C24.1713 22.856 23.4998 22.1844 23.4998 21.356V18.5586C23.4998 17.7691 24.1118 17.1147 24.8996 17.062C25.4537 17.0249 25.874 16.9146 26.1273 16.74C26.234 16.6666 26.3105 16.5823 26.3679 16.4678C26.4275 16.3486 26.4975 16.1339 26.4975 15.7612C26.4975 15.4485 26.3745 15.2088 26.0296 14.9794C25.6376 14.7186 25.0076 14.5266 24.2511 14.5025C23.5026 14.4787 22.7758 14.625 22.2416 14.884C21.7046 15.1443 21.5084 15.4358 21.4531 15.6513C21.247 16.4537 20.4295 16.9371 19.6271 16.731C18.8247 16.5249 18.3413 15.7074 18.5474 14.905C18.8919 13.5637 19.8953 12.6875 20.9328 12.1845C21.9731 11.6802 23.1956 11.4674 24.3464 11.504C25.4893 11.5403 26.7087 11.8281 27.6911 12.4815Z" fill="black"/>
<path d="M27 27C27 28.1046 26.1046 29 25 29C23.8954 29 23 28.1046 23 27C23 25.8954 23.8954 25 25 25C26.1046 25 27 25.8954 27 27Z" fill="black"/>
</svg>

<svg
  xmlns="http://www.w3.org/2000/svg"
  width="24"
  height="24"
  viewBox="0 0 24 24"
  fill="none"
  stroke="currentColor"
  stroke-width="2"
  stroke-linecap="round"
  stroke-linejoin="round"
>
  <path
    fill-rule="evenodd"
    d="M24.8 33h2.7C34.404 33 40 27.404 40 20.5S34.404 8 27.5 8h-7C13.596 8 8 13.596 8 20.5c0 8.06 4.596 12.88 9.43 15.786 2.426 1.458 4.87 2.4 6.717 2.977q.341.107.653.197zm2 9s-.764-.129-2-.463C19.59 40.125 6 35.05 6 20.5 6 12.492 12.492 6 20.5 6h7C35.508 6 42 12.492 42 20.5S35.508 35 27.5 35h-.7z"
    clip-rule="evenodd"
  />
  <path
    fill-rule="evenodd"
    d="M27.691 12.482c1.03.684 1.806 1.793 1.806 3.28 0 1.578-.636 2.738-1.667 3.448a4.5 4.5 0 0 1-1.33.614v1.532a1.5 1.5 0 0 1-3 0v-2.797a1.5 1.5 0 0 1 1.4-1.497c.554-.037.974-.147 1.227-.322a.7.7 0 0 0 .24-.272c.06-.12.13-.334.13-.707 0-.312-.122-.552-.467-.782-.392-.26-1.022-.452-1.779-.476-.748-.024-1.475.122-2.01.381-.536.26-.733.552-.788.767a1.5 1.5 0 1 1-2.906-.746c.345-1.341 1.348-2.217 2.386-2.72 1.04-.505 2.263-.718 3.413-.681 1.143.036 2.363.324 3.345.978"
    clip-rule="evenodd"
  />
  <path d="M27 27a2 2 0 1 1-4 0 2 2 0 0 1 4 0" />
</svg>
